Simply-White-Circles/scalable/apps/distributor-logo-mageia.svg

<svg xmlns="http://www.w3.org/2000/svg" width="48" height="48" viewBox="0 0 12.7 12.7"><path d="M6.34.07a6.29 6.29 0 0 0-6.29 6.3 6.29 6.29 0 0 0 6.3 6.28 6.29 6.29 0 0 0 6.28-6.29A6.29 6.29 0 0 0 6.34.07zM6.32 1l.01.01a5.4 5.4 0 0 1 5.4 5.4 5.4 5.4 0 0 1-5.4 5.41 5.4 5.4 0 0 1-5.41-5.4A5.4 5.4 0 0 1 6.32 1zm-.24.64a.36.36 0 0 0-.36.36.36.36 0 0 0 .36.36.36.36 0 0 0 .36-.36.36.36 0 0 0-.36-.36zm.9.68a.41.41 0 0 0-.41.41.41.41 0 0 0 .41.42.41.41 0 0 0 .41-.42.41.41 0 0 0-.41-.41zm-.72.72a.45.45 0 0 0-.45.45.45.45 0 0 0 .45.45.45.45 0 0 0 .45-.45.45.45 0 0 0-.45-.45zm.86.88a.5.5 0 0 0 0 1 .5.5 0 0 0 0-1zm-1.45.32a.54.54 0 0 0 0 1.08.54.54 0 0 0 0-1.08zM4.5 5.67a.46.46 0 0 0-.33.14c-.47.6-.85 1.28-.85 2.1 0 1.78 1.35 3.25 3.03 3.25 1.68 0 3.03-1.47 3.03-3.25 0-.82-.38-1.48-.87-2.1-.19-.2-.45-.17-.65-.04-.56.29-.87.4-1.51.4-.62 0-.95-.1-1.51-.4a.64.64 0 0 0-.34-.1zm.07.64a3.46 3.46 0 0 0 3.56 0c.32.45.62 1.01.62 1.6 0 1.46-1.07 2.63-2.4 2.63-1.33 0-2.4-1.17-2.4-2.63 0-.59.3-1.15.62-1.6z" fill="#e6e6e6"/></svg>

<?xml version="1.0" encoding="UTF-8" standalone="no"?>
<svg
   xmlns:dc="http://purl.org/dc/elements/1.1/"
   xmlns:cc="http://creativecommons.org/ns#"
   xmlns:rdf="http://www.w3.org/1999/02/22-rdf-syntax-ns#"
   xmlns:svg="http://www.w3.org/2000/svg"
   xmlns="http://www.w3.org/2000/svg"
   xmlns:sodipodi="http://sodipodi.sourceforge.net/DTD/sodipodi-0.dtd"
   xmlns:inkscape="http://www.inkscape.org/namespaces/inkscape"
   width="48"
   height="48"
   viewBox="0 0 12.7 12.7"
   version="1.1"
   id="svg4"
   sodipodi:docname="distributor-logo-mageia.svg"
   inkscape:version="0.92.4 (5da689c313, 2019-01-14)">
  <metadata
     id="metadata10">
    <rdf:RDF>
      <cc:Work
         rdf:about="">
        <dc:format>image/svg+xml</dc:format>
        <dc:type
           rdf:resource="http://purl.org/dc/dcmitype/StillImage" />
        <dc:title></dc:title>
      </cc:Work>
    </rdf:RDF>
  </metadata>
  <defs
     id="defs8" />
  <sodipodi:namedview
     pagecolor="#ffffff"
     bordercolor="#666666"
     borderopacity="1"
     objecttolerance="10"
     gridtolerance="10"
     guidetolerance="10"
     inkscape:pageopacity="0"
     inkscape:pageshadow="2"
     inkscape:window-width="1087"
     inkscape:window-height="480"
     id="namedview6"
     showgrid="false"
     inkscape:zoom="4.9166667"
     inkscape:cx="2.1355932"
     inkscape:cy="24"
     inkscape:window-x="0"
     inkscape:window-y="25"
     inkscape:window-maximized="0"
     inkscape:current-layer="svg4" />
  <path
     d="M 6.34,0.07 A 6.29,6.29 0 0 0 0.05,6.37 6.29,6.29 0 0 0 6.35,12.65 6.29,6.29 0 0 0 12.63,6.36 6.29,6.29 0 0 0 6.34,0.07 Z M 6.32,1 6.33,1.01 a 5.4,5.4 0 0 1 5.4,5.4 5.4,5.4 0 0 1 -5.4,5.41 A 5.4,5.4 0 0 1 0.92,6.42 5.4,5.4 0 0 1 6.32,1 Z M 6.08,1.64 A 0.36,0.36 0 0 0 5.72,2 0.36,0.36 0 0 0 6.08,2.36 0.36,0.36 0 0 0 6.44,2 0.36,0.36 0 0 0 6.08,1.64 Z m 0.9,0.68 A 0.41,0.41 0 0 0 6.57,2.73 0.41,0.41 0 0 0 6.98,3.15 0.41,0.41 0 0 0 7.39,2.73 0.41,0.41 0 0 0 6.98,2.32 Z M 6.26,3.04 A 0.45,0.45 0 0 0 5.81,3.49 0.45,0.45 0 0 0 6.26,3.94 0.45,0.45 0 0 0 6.71,3.49 0.45,0.45 0 0 0 6.26,3.04 Z m 0.86,0.88 a 0.5,0.5 0 0 0 0,1 0.5,0.5 0 0 0 0,-1 z M 5.67,4.24 a 0.54,0.54 0 0 0 0,1.08 0.54,0.54 0 0 0 0,-1.08 z M 4.5,5.67 A 0.46,0.46 0 0 0 4.17,5.81 c -0.47,0.6 -0.85,1.28 -0.85,2.1 0,1.78 1.35,3.25 3.03,3.25 1.68,0 3.03,-1.47 3.03,-3.25 C 9.38,7.09 9,6.43 8.51,5.81 8.32,5.61 8.06,5.64 7.86,5.77 7.3,6.06 6.99,6.17 6.35,6.17 5.73,6.17 5.4,6.07 4.84,5.77 A 0.64,0.64 0 0 0 4.5,5.67 Z m 0.07,0.64 a 3.46,3.46 0 0 0 3.56,0 c 0.32,0.45 0.62,1.01 0.62,1.6 0,1.46 -1.07,2.63 -2.4,2.63 -1.33,0 -2.4,-1.17 -2.4,-2.63 0,-0.59 0.3,-1.15 0.62,-1.6 z"
     id="path2"
     inkscape:connector-curvature="0"
     style="fill:#e6e6e6" />
</svg>
